www/assets/icons/mark_chat_unread.svg

<svg xmlns="http://www.w3.org/2000/svg" width="24" height="24" viewBox="0 0 24 24" fill='currentColor'><path d="M22 7.98V17c0 1.1-.9 2-2 2H6l-4 4V5c0-1.1.9-2 2-2h10.1A5.002 5.002 0 0 0 19 9c1.13 0 2.16-.39 3-1.02M16 4c0 1.66 1.34 3 3 3s3-1.34 3-3-1.34-3-3-3-3 1.34-3 3"/></svg>

<svg width="24" height="24" viewBox="0 0 24 24" xmlns="http://www.w3.org/2000/svg" fill='currentColor'><path d="M22 7.98V17C22 18.1 21.1 19 20 19H6L2 23V5C2 3.9 2.9 3 4 3H14.1C14.04 3.32 14 3.66 14 4C14 6.76 16.24 9 19 9C20.13 9 21.16 8.61 22 7.98ZM16 4C16 5.66 17.34 7 19 7C20.66 7 22 5.66 22 4C22 2.34 20.66 1 19 1C17.34 1 16 2.34 16 4Z"/></svg>
